usr/share/icons/biglinux-icons-material/scalable/apps/gtk3-widget-factory.svg

<?xml version="1.0" encoding="UTF-8" standalone="no"?>
<svg
   width="24"
   height="24"
   viewBox="0 0 6.349875 6.349875"
   version="1.1"
   id="svg73788"
   sodipodi:docname="xfce-theme-manager.svg"
   inkscape:version="1.2.2 (b0a8486541, 2022-12-01)"
   xmlns:inkscape="http://www.inkscape.org/namespaces/inkscape"
   xmlns:sodipodi="http://sodipodi.sourceforge.net/DTD/sodipodi-0.dtd"
   xmlns="http://www.w3.org/2000/svg"
   xmlns:svg="http://www.w3.org/2000/svg">
  <defs
     id="defs73792">
    <radialGradient
       fx="0"
       fy="0"
       cx="0"
       cy="0"
       r="1"
       gradientUnits="userSpaceOnUse"
       gradientTransform="matrix(0,16.5,-16.5,0,8.999991,0.750011)"
       spreadMethod="pad"
       id="radialGradient9652-9">
      <stop
         style="stop-opacity:1;stop-color:#8fc8ff"
         offset="0"
         id="stop9648-1" />
      <stop
         style="stop-opacity:1;stop-color:#0056a8"
         offset="1"
         id="stop9650-2" />
    </radialGradient>
    <clipPath
       clipPathUnits="userSpaceOnUse"
       id="clipPath9662-7">
      <path
         d="M 0,0 H 19 V 19 H 0 Z"
         id="path9660-0" />
    </clipPath>
    <clipPath
       clipPathUnits="userSpaceOnUse"
       id="clipPath9682-9">
      <path
         d="M 0,0 H 19 V 19 H 0 Z"
         id="path9680-3" />
    </clipPath>
  </defs>
  <sodipodi:namedview
     id="namedview73790"
     pagecolor="#ffffff"
     bordercolor="#000000"
     borderopacity="0.25"
     inkscape:showpageshadow="2"
     inkscape:pageopacity="0.0"
     inkscape:pagecheckerboard="0"
     inkscape:deskcolor="#d1d1d1"
     showgrid="false"
     inkscape:zoom="9.3691649"
     inkscape:cx="-11.527175"
     inkscape:cy="21.079787"
     inkscape:window-width="2560"
     inkscape:window-height="1000"
     inkscape:window-x="1680"
     inkscape:window-y="0"
     inkscape:window-maximized="1"
     inkscape:current-layer="svg73788" />
  <g
     id="g9638"
     transform="matrix(0.35277082,0,0,0.35277082,-1.1961624e-4,-9.2306512e-6)">
    <g
       id="g9640">
      <g
         id="g9646">
        <path
           d="m 7.195,0.836 c 0.09,0 0.176,-0.012 0.258,-0.035 1.078,-0.071 2.156,-0.067 3.231,0.008 0.976,0.078 1.921,0.289 2.836,0.636 1.519,0.625 2.558,1.711 3.121,3.254 0.316,0.93 0.507,1.887 0.566,2.867 0.078,1.235 0.051,2.465 -0.086,3.696 -0.105,0.863 -0.328,1.691 -0.672,2.488 -0.637,1.383 -1.672,2.336 -3.101,2.859 C 12.191,17 11,17.207 9.773,17.227 8.398,17.301 7.035,17.195 5.684,16.918 3.203,16.367 1.668,14.852 1.09,12.375 0.844,11.262 0.73,10.133 0.754,8.992 0.727,7.781 0.855,6.582 1.141,5.402 1.75,3.09 3.219,1.656 5.547,1.102 6.09,0.969 6.641,0.879 7.195,0.836 Z"
           style="fill:url(#radialGradient9652-9);fill-rule:evenodd;stroke:none"
           id="path9654" />
      </g>
    </g>
  </g>
  <g
     id="g74694"
     transform="matrix(0.99983547,0,0,0.99983547,9.9041002e-4,0.16579639)">
    <g
       id="g9656"
       transform="matrix(0,0.35277082,-0.35277082,0,6.3497552,0.52208713)">
      <g
         id="g9658" />
      <g
         id="g9670">
        <g
           clip-path="url(#clipPath9662-7)"
           opacity="0.194"
           id="g9668">
          <g
             id="g9666">
            <path
               d="M 11.371,3.418 V 14.602 C 11.371,14.82 11.203,15 10.992,15 h -0.035 c -0.215,0 -0.383,-0.18 -0.383,-0.398 V 3.418 c 0,-0.223 0.168,-0.402 0.383,-0.402 h 0.035 c 0.211,0 0.379,0.179 0.379,0.402 z"
               style="fill:#ffffff;fill-opacity:1;fill-rule:evenodd;stroke:none"
               id="path9664" />
          </g>
        </g>
      </g>
    </g>
    <path
       d="m 5.1496288,4.534855 c 0.078315,0 0.1418139,-0.062088 0.1418139,-0.1404028 0,-0.078668 -0.063499,-0.1421667 -0.1418139,-0.1421667 H 2.1828262 V 4.534855 Z"
       style="fill:#ffffff;fill-opacity:1;fill-rule:evenodd;stroke:none;stroke-width:0.352771"
       id="path9672" />
    <path
       d="m 1.6385008,4.4011548 c 0,-0.2261261 0.1830881,-0.4106252 0.4106253,-0.4106252 0.2257733,0 0.4092141,0.1844991 0.4092141,0.4106252 0,0.2275372 -0.1834408,0.4106253 -0.4092141,0.4106253 -0.2275372,0 -0.4106253,-0.1830881 -0.4106253,-0.4106253 z"
       style="fill:#ffffff;fill-opacity:1;fill-rule:evenodd;stroke:none;stroke-width:0.352771"
       id="path9674" />
    <g
       id="g9676"
       transform="matrix(0,0.35277082,-0.35277082,0,6.3497552,0.86095805)">
      <g
         id="g9678" />
      <g
         id="g9690">
        <g
           clip-path="url(#clipPath9682-9)"
           opacity="0.194"
           id="g9688">
          <g
             id="g9686">
            <path
               d="M 7.379,3.418 V 14.602 C 7.379,14.82 7.23,15 7.051,15 H 6.906 C 6.727,15 6.578,14.82 6.578,14.602 V 3.418 c 0,-0.223 0.149,-0.402 0.328,-0.402 h 0.145 c 0.179,0 0.328,0.179 0.328,0.402 z"
               style="fill:#ffffff;fill-opacity:1;fill-rule:evenodd;stroke:none"
               id="path9684" />
          </g>
        </g>
      </g>
    </g>
    <path
       d="m 5.1496288,3.4654647 c 0.078315,0 0.1418139,-0.063499 0.1418139,-0.1421666 0,-0.078315 -0.063499,-0.1418138 -0.1418139,-0.1418138 H 3.5924984 v 0.2839805 z"
       style="fill:#ffffff;fill-opacity:1;fill-rule:evenodd;stroke:none;stroke-width:0.352771"
       id="path9692" />
    <path
       d="m 3.3293314,3.3317646 c 0,-0.2275372 0.183088,-0.4106252 0.4106252,-0.4106252 0.2257733,0 0.4092142,0.183088 0.4092142,0.4106252 0,0.2261261 -0.1834409,0.4106252 -0.4092142,0.4106252 -0.2275372,0 -0.4106252,-0.1844991 -0.4106252,-0.4106252 z"
       style="fill:#ffffff;fill-opacity:1;fill-rule:evenodd;stroke:none;stroke-width:0.352771"
       id="path9694" />
    <rect
       x="1.0574961"
       y="1.2074925"
       width="4.23246"
       height="0.47012526"
       ry="0.23506263"
       opacity="0.35"
       paint-order="markers stroke fill"
       id="rect74669"
       style="stroke-width:0.444353" />
    <rect
       x="1.0574961"
       y="2.1222117"
       width="1.8809454"
       height="0.47012526"
       ry="0.23506263"
       opacity="0.35"
       paint-order="markers stroke fill"
       id="rect74671"
       style="stroke-width:0.444353" />
    <rect
       x="3.4090114"
       y="2.1222117"
       width="1.8809454"
       height="0.47012526"
       ry="0.23506263"
       opacity="0.35"
       paint-order="markers stroke fill"
       id="rect74673"
       style="stroke-width:0.444353" />
  </g>
</svg>

<svg xmlns="http://www.w3.org/2000/svg" width="24" height="24" viewBox="0 0 6.35 6.35"><defs><clipPath id="b" clipPathUnits="userSpaceOnUse"><path d="M0 0h19v19H0Z"/></clipPath><clipPath id="c" clipPathUnits="userSpaceOnUse"><path d="M0 0h19v19H0Z"/></clipPath><radialGradient id="a" cx="0" cy="0" r="1" fx="0" fy="0" gradientTransform="matrix(0 16.5 -16.5 0 9 .75)" gradientUnits="userSpaceOnUse" spreadMethod="pad"><stop offset="0" style="stop-opacity:1;stop-color:#8fc8ff"/><stop offset="1" style="stop-opacity:1;stop-color:#0056a8"/></radialGradient></defs><path d="M7.195.836c.09 0 .176-.012.258-.035a23.86 23.86 0 0 1 3.231.008 10.26 10.26 0 0 1 2.836.636c1.519.625 2.558 1.711 3.121 3.254.316.93.507 1.887.566 2.867a21.227 21.227 0 0 1-.086 3.696 8.976 8.976 0 0 1-.672 2.488c-.637 1.383-1.672 2.336-3.101 2.859a11.693 11.693 0 0 1-3.575.618 15.998 15.998 0 0 1-4.089-.309c-2.481-.551-4.016-2.066-4.594-4.543a14.244 14.244 0 0 1-.336-3.383c-.027-1.211.101-2.41.387-3.59.609-2.312 2.078-3.746 4.406-4.3A10.27 10.27 0 0 1 7.195.836Z" style="fill:url(#a);fill-rule:evenodd;stroke:none" transform="scale(.35277)"/><g transform="matrix(.99984 0 0 .99984 .001 .166)"><g clip-path="url(#b)" opacity=".194" transform="rotate(90 2.914 3.436) scale(.35277)"><path d="M11.371 3.418v11.184a.389.389 0 0 1-.379.398h-.035a.39.39 0 0 1-.383-.398V3.418a.39.39 0 0 1 .383-.402h.035c.211 0 .379.179.379.402z" style="fill:#fff;fill-opacity:1;fill-rule:evenodd;stroke:none"/></g><path d="M5.15 4.535a.14.14 0 0 0 .141-.14.142.142 0 0 0-.141-.143H2.183v.283Z" style="fill:#fff;fill-opacity:1;fill-rule:evenodd;stroke:none;stroke-width:.352771"/><path d="M1.639 4.401a.41.41 0 1 1 .82 0 .41.41 0 0 1-.82 0z" style="fill:#fff;fill-opacity:1;fill-rule:evenodd;stroke:none;stroke-width:.352771"/><g clip-path="url(#c)" opacity=".194" transform="rotate(90 2.744 3.605) scale(.35277)"><path d="M7.379 3.418v11.184c0 .218-.149.398-.328.398h-.145c-.179 0-.328-.18-.328-.398V3.418c0-.223.149-.402.328-.402h.145c.179 0 .328.179.328.402z" style="fill:#fff;fill-opacity:1;fill-rule:evenodd;stroke:none"/></g><path d="M5.15 3.465a.142.142 0 0 0 0-.284H3.592v.284z" style="fill:#fff;fill-opacity:1;fill-rule:evenodd;stroke:none;stroke-width:.352771"/><path d="M3.33 3.332a.41.41 0 1 1 .819-.002.41.41 0 0 1-.82.002z" style="fill:#fff;fill-opacity:1;fill-rule:evenodd;stroke:none;stroke-width:.352771"/><rect width="4.232" height=".47" x="1.057" y="1.207" opacity=".35" paint-order="markers stroke fill" ry=".235" style="stroke-width:.444353"/><rect width="1.881" height=".47" x="1.057" y="2.122" opacity=".35" paint-order="markers stroke fill" ry=".235" style="stroke-width:.444353"/><rect width="1.881" height=".47" x="3.409" y="2.122" opacity=".35" paint-order="markers stroke fill" ry=".235" style="stroke-width:.444353"/></g></svg>
